X:1

T:Whiddon’s Favorite

M:2/4

L:1/8

R:Reel

S:Ryan’s Mammoth Collection (1883)

Z:AK/Fiddler’s Companion

K:A

E/D/ | (C/D/^D/E/ F/E/C/A,/) | .A/.E/.B/.E/ .c/.E/.A/.E/ | (C/D/^D/E/ F/E/C/A,/) | {c}B/A/B/c/ B/A/F/E/ |

(C/D/^D/E/ F/E/C/A,/) | .A/.E/.B/.E/ .c/.E/.A/.E/ | (C/D/^D/E/ F/E/C/A,/) | {c}B/A/B/c/ A :|

|: e | {b}a/g/a/b/ a/g/f/e/ | f/e/d/c/ B/A/G/B/ | {b}a/g/a/b/ c’/a/f/e/ | d/c/B/A/ G/B/E |

{b}a/g/a/b/ a/g/f/e/ | f/e/d/c/ B/A/G/B/ | A/^A/B/^B/ c/d/^d/e/ | ^e/f/g/^g/ a :|

 

WHIDDON'S HORNPIPE. English, Scottish, American; Hornpipe. B Flat Major (most versions): G Major (Miller). Standard. AABB. Lisa Ornstein points out the second strain is something of a ‘floater’, similar to the first strain of  “Norfolk Hornpipe [1]” printed in Ryan’s Mammoth Collection (c. 1883) and credited to W.H. Whiddon, and to that of “The Wily Old Bachelor.” Cole (1000 Fiddle Tunes), 1940; pg. 85. Craig (The Empire Collection of Hornpipes), c. late 19th cent.). Kerr (Merry Melodies), vol. 2; No. 386, pg. 43. Miller (Fiddler’s Throne), 2004; No. 322, pg. 189. Ryan’s Mammoth Collection, 1883; pg. 119.

